resources/svg/minor-finances.svg

<svg xmlns="http://www.w3.org/2000/svg" viewBox="0 0 20 20" fill="currentColor"><path fill-rule="evenodd" d="M9.44529 3.16795C9.78119 2.94402 10.2188 2.94402 10.5547 3.16795L16.5547 7.16795C16.804 7.33413 16.9656 7.60333 16.9951 7.90146C17.0246 8.1996 16.9189 8.49526 16.7071 8.70711L16 9.41421V14.0004C16.5845 14.2223 17 14.7876 17 15.45C17 16.306 16.306 17 15.45 17H4.54999C3.69395 17 2.99999 16.306 2.99999 15.45C2.99999 14.7876 3.41545 14.2223 3.99999 14.0004V9.41421L3.29289 8.70711C3.08104 8.49526 2.97534 8.1996 3.00486 7.90146C3.03438 7.60333 3.19602 7.33413 3.44529 7.16795L9.44529 3.16795ZM12 9C12.5523 9 13 9.44772 13 10V13C13 13.5523 12.5523 14 12 14C11.4477 14 11 13.5523 11 13V10C11 9.44772 11.4477 9 12 9ZM8.99999 10C8.99999 9.44772 8.55227 9 7.99999 9C7.4477 9 6.99999 9.44772 6.99999 10V13C6.99999 13.5523 7.4477 14 7.99999 14C8.55227 14 8.99999 13.5523 8.99999 13V10Z" fill="#5C5F62"/></svg>

<svg xmlns="http://www.w3.org/2000/svg" viewBox="0 0 20 20" fill="currentColor"><path fill-rule="evenodd" d="M9.445 3.168a1 1 0 0 1 1.11 0l6 4a1 1 0 0 1 .152 1.54l-.707.706v4.586a1.55 1.55 0 0 1-.55 3h-10.9a1.55 1.55 0 0 1-.55-3v-4.586l-.707-.707a1 1 0 0 1 .152-1.54l6-3.999Zm2.555 5.832a1 1 0 0 1 1 1v3a1 1 0 1 1-2 0v-3a1 1 0 0 1 1-1Zm-3 1a1 1 0 0 0-2 0v3a1 1 0 1 0 2 0v-3Z"/></svg>
